X:1
T:Hear my prayer - Batten
T:James Gibb editions
T:#
%%score [ 1 { 2 | 3 } 4 5 ]
L:1/8
Q:1/4=160
M:none
K:Ab
V:1 treble nm="Soprano" snm="S"
V:2 treble nm="Alto I" snm="A1"
V:3 treble 
V:4 treble-8 nm="Tenor" snm="T"
V:5 bass nm="Bass" snm="B"
V:1
"^Ps 55 vv 1,2,4 & 6""^Hear my prayer, O God""^Adrian Batten\n(c. 1590-1637)" c12 c4 | %1
w: Hear my|
 A4 F4 (e6 =d2) | c16 | z16 | G12 G4 |[M:4/2] G4 c4 c8 | c8 f8 | =e8 z4 _e4 | e4 c2 =d2 e4 c4 | %9
w: pray- er O *|God.||Hear my|pray- er O|God, O|God and|hide not thy- self from|
 f6 e2 d6 (d2 | c4 c4 B4 A2 A2 | G4 c4 B4 d4 | c6 B2 =A8 | z4 c8 c4 | c4 c4 c4 c4 | c8 c8 | %16
w: my pe- ti- ti\-|* and hide not thy-|self from my pe-|ti- ti- on.|Take heed|un- to me and|hear me,|
 z4 e8 e4 | e4 e4 e4 e4 | e6 d2) c8 | z4 c6 c2 B4- | B4 A2 B2 c6 c2 | c4 c4 B8 | c8 z8 | %23
w: take heed|un- to me and|hear * me,|how I mourn|* in my pray- er|and am vex-|ed,|
 z8 z4 e4- | e4 c4 c8 | c8 f6 f2 | e8 d4 d4 | c6 c2 =d8 | =e4 (f8 e4) | f16 || F8 F4 F2 F2 | %31
w: and|* am vex-|ed, how I|mourn in my|pray- er and|am vex\- *|ed.|My heart is dis-|
 A6 A2 G8 | A4 (c6 BA B4) | c8 z4 c2 =d2 | =e4 f4 e4 c4 | B4 c4 B8 | c4 c2 c2 B4 d4 | %37
w: qui- et- ed|with- in * * *|me and the|fear of death is|fall'n up- on|me, and the fear of|
 c6 =d2 e4 c4 | B8 c8 | (c6 B2) =A8 || z4 c8 c4 | B8 z4 c4- | c4 c4 c8 | z4 e8 e2 e2 | %44
w: death is fall'n, is|fall'n up-|on * me.|Then I|said, then|* I said:|O that I|
 c4 c4 B4 B4 | c8 z4 B4- | B4 B2 B2 c4 e4 | e4 =d4 e4 e4 | c8 c6 G2 | A2 B2 c2 =d2 =e2 c2 f4- | %50
w: had wings like a|dove, O|* that I had wings|like a dove, like|a dove, then|would I flee a- way and be|
 f4 =e4 f4 f4 | e6 e2 d4 d4 | c4 z2 G2 A2 B2 c2 A2 | G4 z4 z4 B4 | c2 d2 e2 c2 d2 e2 f2 f2 | %55
w: * at rest, then|would I flee a-|way, then would I flee a-|way, then|would I flee a- way and be at|
 e8 e4 e4- | e2 (d2 B4) c8- | c8 z4 z2 A2 | B2 c2 d2 B2 c2 d2 e4 | =d4 c6 (B2 G4) | =A6 B2 c4 =d4 | %61
w: rest, and be|* at * rest,|* then|would I flee a- way and be|at rest, at *|rest, then would I|
 c2 c2 f6 (e2 =d4) | c8 (B4 =A4) |[Q:1/4=157] B4[Q:1/4=152] c4[Q:1/4=146] =d8- | %64
w: flee a- way and *|be at *|rest and be|
[Q:1/4=139] d4[Q:1/4=136] (c2[Q:1/4=134] B2)[Q:1/4=133] c16 |] %65
w: * at * rest.|
V:2
 z8 F8- | F4 F4 E4 C4 | (A6 G2 F8) | G4 (G6 FE F4) | G4 (G6 F2 E2 C2) |[M:4/2] =D4 z4 z8 | %6
w: Hear|* my pray- er|O * *|God, O * * *|God, O * * *|God,|
 z4 (F6 =E2 F4) | G8 z4 A4 | G4 A2 A2 G4 E4 | F2 G2 A8 G4 | A8 z8 | z4 A4 G4 F4 | C6 C2 C8 | %13
w: O * *|God, and|hide not thy- self from|my pe- ti- ti-|on,|from my pe-|ti- ti- on.|
 z4 F8 G4 | =E4 C4 C4 C4 | C8 C8 | z4 C8 E4 | E4 G4 A4 A4- | A4 G4 A8 | z16 | z16 | z16 | %22
w: Take heed|un- to me and|hear me,|take heed|un- to me and|* hear me,||||
 z8 A6 A2 | G4 F2 F2 E4 E4 | E4 A,4 C8 | C8 z4 A4- | A2 A2 G8 F2 G2 | A8 G4 G4- | G4 F4 C8 | C16 || %30
w: how I|mourn in my pray- er|and am vex-|ed, how|* I mourn in my|pray- er and|* am vex-|ed.|
 z8 A,8 | C4 C2 C2 C6 C2 | C4 C4 F8 | =E4 E2 F2 G4 A4 | G4 z4 z4 C4 | C4 A8 G4 | A4 A2 A2 G4 F4 | %37
w: My|heart is dis- qui- et-|ed with- in.|me and the fear of|death is|fall'n up- on|me, and the fear of|
 =E4 F4 C8 | z2 G2 B8 A4 | (G4 C4) C8 || z4 E8 E4 | E8 z4 =E4- | E4 F4 =E8 | %43
w: death is fall'n,|is fall'n up-|on * me.|Then I|said, then|* I said:|
 z4 !courtesy!_E8 A2 A2 | A4 A4 A4 G4 | A8 z4 E4- | E4 E2 E2 E4 E4 | F4 F4 E4 A4- | %48
w: O that I|had wings like a|dove, O|* that * I~had wings|like a dove, like|
 A2 (G2 F4) =E4 E4 | F2 G2 A2 A2 G4 A4 | G6 G2 F8 | z4 A4 A4 G4 | A4 B4 A8 | z4 F4 E6 E2 | %54
w: * a * dove, then|would I flee a- way and|be at rest,|then would I|flee a- way|and be at|
 E8 z4 F4 | G2 A2 B2 A2 G4 A4 | A4 G4 A4 F4 | =E4 C4 C8 | z8 z4 G,4 | B,4 C4 C8 | %60
w: rest, then|would I flee a- way and|be at rest, and|be at rest,|and|be at rest,|
 z2 F,2 F6 E2 =D2 B,2 | C4 C4 =D4 B,4 | F,4 F,4 B,4 z4 | z4 F8 B4- | B4 (=A2 G2) A16 |] %65
w: then would I flee a-|way and be at|rest, at rest,|and be|* at * rest.|
V:3
 z16 | z16 | z16 | C12 C4 | =B,4 G,4 (E6 F2) |[M:4/2] G4 A3 A G4 G4 | A4 A6 (G2 A2 B2) | c8 z4 c4 | %8
w: |||Hear my|pray- er O *|God. hear my pray- er,|O God, O * *|God, and|
 B4 A2 A2 B4 A4 | A6 C2 D2 D2 B,4 | z4 E4 E4 E2 E2 | E4 E4 D2 E2 F4- | F4 =E4 F8 | z4 C8 C4 | %14
w: hide not thy- self from|my pe- ti- ti- on,|and hide not thy-|self from my pe- ti\-|* ti- on.|Take heed|
 C4 =E4 F4 E4 | F8 =E8 | z4 A8 A4 | B4 G4 E4 E4 | E8 E8 | A6 A2 G8 | F4 F4 E4 E4 | %21
w: un- to me and|hear me,|take heed|un- to me and|hear me,|how I mourn|in my pray- er|
 F2 G2 (A6 GF G4) | A8 z8 | B6 B2 A4 G2 G2 | G2 G2 F6 F2 =E4 | F8 z8 | z4 C2 C2 D4 D2 E2 | %27
w: and am vex\- * * *|ed,|how I mourn in my|pray- er and am vex-|ed,|how I mourn in my|
 F4 E4 z4 B4- | B4 A4 G8 | F16 || z8 C8 | C4 F2 F2 =E6 E2 | F2 F2 (A6 G2 F4) | %33
w: pray- er and|* am vex-|ed.|My|heart is dis- qui- et-|ed with- in * *|
 G8 z4"^and the" F2 F2 | G4 A4 G4 A4 | G4 E4 E8 | E8 z4 B2 B2 | B4 A4 G4 E4 | (G4 F4) =E4 (F4- | %39
w: me * *|fear of death is|fall'n up- on|me, and the|fear of death is|fall'n * up- on|
 F4 =E4) F8 || z4 A8 A4 | G8 z4 G4- | G4 A4 G8 | z4 A8 E2 E2 | E4 E4 E4 E4 | E8 z4 E4- | %46
w: * * me.|Then I|said, then|* I said:|O that I|had wings like a|dove, O|
 E4 G2 G2 A4 G4 | B6 A2 G4 E4 | (F4 C4) C4 C4 | F,2 F,2 F2 F2 C4 (A,2 B,2) | C6 B,2 A,8 | %51
w: * that I had wings|like a dove, like|a * dove, then|would I flee a- way and *|be at rest,|
 z8 z4 B,4 | E2 F2 G2 E2 F2 G2 A2 F2 | G2 A2 B2 A2 (G2 A4) G2 | A4 A4 F6 F2 | B,4 E4 E8 | %56
w: then|would I flee a- way and be at|rest, then would I flee * a-|way and be at|rest, and be|
 (E12 C4) | C6 =E2 F2 G2 A2 F2 | G2 A2 B4 A4 G4- | G2 F2 F8 =E4 | F16 | z4 =A4 B6 B,2 | C4 F8 F4 | %63
w: at *|rest, then would I flee a-|way and be at rest,|* and be at|rest,|and be at|rest, and be|
 F16 | F24 |] %65
w: at|rest.|
V:4
 z16 | z8 c8- | c4 c4 A4 F4 | e4 e6 (=d2 c4) | =d8 c6 c2 |[M:4/2][K:treble-8] B4 f8 =e4 | f8 z8 | %7
w: |Hear|* my pray- er|O God, O *|God, hear my|pray- er, O|God,|
 z8 z4 A4 | e4 f2 f2 e4 A4 | d6 c2 B6 B2 | A4 A4 G4 c2 c2 | B4 z4 G2 B4 A2 | G6 G2 F8 | z4 A8 G4 | %14
w: and|hide not thy- self from|my pe- ti- ti-|on, and hide not thy-|self from my pe-|ti- ti- on.|Take heed|
 G6 G2 A4 G4 | A8 G8 | z4 c8 c4 | B6 B2 c4 c4 | B8 A8 | f6 f2 e8 | d4 d4 c6 B2 | %21
w: un- to me and|hear me,|take heed|un- to me and|hear me,|how I mourn|in my pray- er|
 (A2 B2) (c2 d2) e8 | A8 c6 =d2 | e4 B2 B2 c6 c2 | B4 A4 G8 | =A8 z8 | z16 | z4 g2 g2 =d4 d2 d2 | %28
w: and * am * vex-|ed, how I|mourn in my pray- er|and am vex-|ed,||how I mourn in my|
 c2 c2 c6 B2 G4 | =A16 || z8 F8 | F4 F2 F2 c6 c2 | F4 F4 d8 | c4 c2 =d2 =e4 f4 | c4 F4 c4 A4 | %35
w: pray- er and am vex-|ed.|My|heart is dis- qui- et-|ed with- in|me and the fear of|death, of death is|
 e4 c4 e8 | A4 A2 A2 B4 B4 | c4 F4 c4 c4 | e4 d4 c8- | c8 F8 || z4 E8 A4 | B8 z8 | c4 c4 c8 | %43
w: fall'n up- on|me, and the fear of|death is fall'n, is|fall'n up- on|* me.|Then I|said,|then I said:|
 z4 c8 c2 c2 | A4 E4 (B3 A) B4 | A8 z4 B4- | B4 e2 e2 e4 e4 | B4 B4 B4 c4- | c2 (B2 A4) G8 | z16 | %50
w: O that I|had wings like * a|dove, O|* that I had wings|like a dove, like|* a * dove.||
 z4 c4 F2 G2 A2 B2 | c2 d2 e2 c2 f4 (d2 B2) | c4 e4 A6 A2 | B2 c2 d2 c2 (B2 c2) B4 | %54
w: Then would I flee a-|way and be at rest, at *|rest, then would I|flee a- way and be * at|
 A6 A2 B2 c2 d4- | d4 c4 B4 c4 | B6 B2 A4 A4 | G6 G2 A2 B2 c2 A2 | G4 F4 E6 E2 | %59
w: rest, then would I flee|* a- way, a-|way and be at|rest, then would I flee a-|way, a- way, then|
 F2 G2 A2 A2 G6 =e2 | =d4 (c8 B4) | =A4 A4 B4 B4 | f6 e2 =d4 c4 | =d4 =A4 B8 | F8 F16 |] %65
w: would I flee a- way, a-|way and *|be at rest, then|would I flee a-|way and be|at rest.|
V:5
 z16 | z16 | F,12 F,4 | E,4 C,4 A,8 | G,6 (F,2 E,2 =D,2 C,4 |[M:4/2] G,4 F,4 C6 C2 | A,4 F,4 D8 | %7
w: ||Hear my|pray- er O|God, O * * *|* God, Hear my|pray- er, O|
 C8 z8 | z16 | z16 | z4 A,,4 E,4 C,2 C,2 | E,4 A,,4 B,,4 B,,4 | C,6 C,2 F,8 | z4 F,8 =E,4 | %14
w: God,|||and hide not thy-|self from my pe-|ti- ti- on.|Take heed|
 C,4 C,4 F,4 C,4 | A,,6 B,,2) C,8 | z4 A,8 A,4 | G,4 E,4 C,6 D,2 | E,8 A,,8 | z16 | z16 | z16 | %22
w: un- to me and|hear * me,|take heed|un- to me and|hear me,||||
 z8 F,6 F,2 | E,4 D,2 D,2 C,6 D,2 | E,4 F,4 C,8 | F,8 D6 D2 | C8 B,6 B,2 | A,4 A,4 B,8 | C8 C,8 | %29
w: how I|mourn in my pray- er|and am vex-|ed, how I|mourn in my|pray- er and|am vex-|
 F,16 || z16 | z16 | z16 | z16 | z16 | z16 | z16 | z16 | z16 | z16 || z4 A,,8 A,,4 | E,8 z4 C,4- | %42
w: ed.|||||||||||Then I|said, then|
 C,4 F,4 C8 | z4 A,8 A,2 A,2 | A,4 (C,3 D,) E,4 E,4 | A,,8 z4 E,4- | E,4 E,2 E,2 A,4 C4 | %47
w: * I said:|O that I|had wings * like a|dove, O|* that I had wings|
 B,6 B,2 E,4 C,4 | F,8 C,8 | z16 | z4 C,4 D,2 E,2 F,2 G,2 | A,2 B,2 C2 A,2 D4 B,4 | A,4 G,4 F,8 | %53
w: like a dove, like|a dove.||Then would I flee a-|way and be at rest, then|would I flee|
 (E,4 D,4) E,4 E,4 | A,,2 B,,2 C,2 A,,2 D,4 D,4 | E,6 E,2 E,4 (C,2 D,2) | E,4 E,4 A,,6 B,,2 | %57
w: a\- * way, then|would I flee a- way and|be at rest, and *|be at rest, at|
 C,4 C,4 F,6 F,2 | E,4 D,4 C,4 C,4 | B,,4 (A,,2 B,,2) C,4 C,4 | F,6 G,2 =A,4 B,4 | %61
w: rest, then would I|flee a- way and|be at * rest, then|would I flee a-|
 F,6 E,2 =D,2 B,,2 B,4- | B,4 =A,4 B,4 F,4 | B,,4 F,4 =D,4 B,,4 | F,6 F,2 F,16 |] %65
w: way and be at rest,|* then would I|flee a- way and|be at rest.|

